X:1
T:Title
%%score 1 { 2 | 3 }
L:1/8
Q:1/4=110
M:4/4
K:G
V:1 treble nm="Grand Piano, Soprano"
V:2 bass nm="Choir Pad, Shalem, LM"
V:3 bass 
V:1
 D2 G2- G/ z/ D [DG]2 | [DA]2 [DB]2- [DB][CA] [B,G]2 | [DA]2 [DB]2 [GB]2 [Gc]2 | %3
w: By~Lowell~Mason,~1844 * * * *|||
 [Ge]2 [Gd]2- [Gd][Gc] [GB]2 | G2 [Ge]2- [Ge][Ec] [EG]2 | [Ge]2 [Gd]2- [Gd][DB] [B,G]2 | %6
w: |||
 B,2 C2 D2 E2 | [EA]2 [DG]4 [DF]2- | [DF]2 [DG]6- | [DG]2 z2 z4 |] %10
w: ||||
V:2
 D,2 G,2- G,/ z/ D, D,2 | F,2 G,2- G,/ z/ G, G,2 | F,2 G,2 G,2 G,2 | C2 B,2- B,A, G,2 | %4
 B,2[K:treble] C2- CG, G,2 | C2[K:bass] B,2- B,G, G,2 | B,,2 C,2 D,2 E,2 | C2 B,4 A,2- | A,2 B,6- | %9
 B,2 z2 z4 |] %10
V:3
 z4 z2 B,,2 | D,2 z2 z4 | D,2 z2 z2 E,2 | C,2 G,2- G,G, z2 | G,2 C,2- C,C, C,2 | %5
 C,2 G,,2- G,,G,, G,,2 | z8 | C,2 D,4 D,2- | D,2 G,,6- | G,,2 z2 z4 |] %10

